packages/components/bolt-icons/src/svgs/product/industry/manufacturing.svg

<?xml version="1.0" encoding="UTF-8" standalone="no"?>
<svg width="32px" height="32px" viewBox="0 0 32 32" version="1.1" xmlns="http://www.w3.org/2000/svg" xmlns:xlink="http://www.w3.org/1999/xlink">
    <!-- Generator: Sketch 47.1 (45422) - http://www.bohemiancoding.com/sketch -->
    <title>Icon/Industry/Manufacturing</title>
    <desc>Created with Sketch.</desc>
    <defs></defs>
    <g id="Symbols" stroke="none" stroke-width="1" fill="none" fill-rule="evenodd">
        <g id="Icon/Industry/Manufacturing" fill="#1F2555">
            <path d="M24,0 L24,4 L20,4 L20,0 L18,0 L18,4 L14,4 L14,0 L12.0005,0 L12.0005,4 L8.0005,4 L8.0005,0 L6,0 L6,4 L4,4 L4,5.999 L0,5.999 L0,8 L4,8 L4,12 L0,12 L0,14 L4,14 L4,18 L0,18 L0,20 L4,20 L4,24 L0,24 L0,26 L4,26 L4,28 L6,28 L6,32 L8.0005,32 L8.0005,28 L12.0005,28 L12.0005,32 L14,32 L14,28 L18,28 L18,32 L20,32 L20,28 L24,28 L24,32 L26.0005,32 L26.0005,28 L28,28 L28,26 L32,26 L32,24 L28,24 L28,20 L32,20 L32,18 L28,18 L28,14 L32,14 L32,12 L28,12 L28,8 L32,8 L32,5.999 L28,5.999 L28,4 L26.0005,4 L26.0005,0 L24,0 Z M6,24 L6,20 L6,18 L6,14 L6,12 L6,8 L6,5.999 L8.0005,5.999 L12.0005,5.999 L14,5.999 L18,5.999 L20,5.999 L24,5.999 L26.0005,5.999 L26.0005,8 L26.0005,12 L26.0005,14 L26.0005,18 L26.0005,20 L26.0005,24 L26.0005,26 L24,26 L20,26 L18,26 L14,26 L12.0005,26 L8.0005,26 L6,26 L6,24 Z" id="Page-1"></path>
        </g>
    </g>
</svg>

<svg id="ad9b9821-4f20-411a-94e7-d6be8791e59f" data-name="Layer 1" xmlns="http://www.w3.org/2000/svg" viewBox="0 0 32 32"><title>manufacturing</title><path id="bb52bbc1-6b39-42be-90ec-a02f161f678e" data-name="Page-1" d="M24,0V4H20V0H18V4H14V0H12V4H8V0H6V4H4V6H0V8H4v4H0v2H4v4H0v2H4v4H0v2H4v2H6v4H8V28h4v4h2V28h4v4h2V28h4v4h2V28h2V26h4V24H28V20h4V18H28V14h4V12H28V8h4V6H28V4H26V0ZM6,24V6H26V26H6Z" fill="#1f2555" fill-rule="evenodd"/></svg>
